img/features_off.svg

<svg width="20" height="20" viewBox="0 0 20 20" fill="none" xmlns="http://www.w3.org/2000/svg">
<path d="M10.0008 0C4.47816 0 0.00100708 4.47722 0.00100708 9.9999C0.00100708 15.5224 4.4781 20 10.0007 20C15.5233 20 20.0009 15.5224 20.0009 9.9999C20.0009 4.47722 15.5234 0 10.0008 0ZM13.7731 13.8113C13.3738 14.2102 12.727 14.2102 12.3281 13.8113L10.0526 11.5358L7.6736 13.9149C7.27454 14.3138 6.62767 14.3138 6.22881 13.9149C5.82955 13.5155 5.82955 12.8688 6.22881 12.4695L8.60766 10.0907L6.39274 7.87592C5.99381 7.47653 5.99381 6.82986 6.39274 6.43074C6.79181 6.03167 7.4388 6.03167 7.83793 6.43074L10.0527 8.64551L12.1641 6.534C12.5631 6.13507 13.2103 6.13494 13.6091 6.534C14.0083 6.9334 14.0083 7.58046 13.6091 7.97919L11.4979 10.0906L13.7732 12.366C14.1721 12.7649 14.1723 13.4121 13.7731 13.8113Z" fill="white"/>
</svg>

<svg width="20" height="20" fill="none" xmlns="http://www.w3.org/2000/svg"><path d="M10 0C4.479 0 .002 4.477.002 10c0 5.522 4.477 10 10 10 5.522 0 10-4.478 10-10 0-5.523-4.478-10-10-10Zm3.773 13.811c-.4.4-1.046.4-1.445 0l-2.275-2.275-2.38 2.379A1.022 1.022 0 1 1 6.23 12.47l2.379-2.38-2.215-2.214A1.022 1.022 0 0 1 7.838 6.43l2.215 2.215 2.111-2.112a1.022 1.022 0 1 1 1.445 1.445l-2.111 2.112 2.275 2.275c.4.399.4 1.046 0 1.445Z" fill="#fff"/></svg>
